public/editor-src/editor/icons/editor/dynamic-img.svg

<svg id="nc-dynamic-img" viewBox="0 0 16 16" version="1.1" xmlns="http://www.w3.org/2000/svg" xmlns:xlink="http://www.w3.org/1999/xlink">
    <g id="dynamic-img" stroke="none" stroke-width="1" fill="none" fill-rule="evenodd">
        <path d="M14,7.70659632 L14,14.1232877 C14,14.6318493 13.5085616,14.9708904 13,14.9708904 L0.84760274,14.9708904 C0.339041096,14.9708904 0,14.6318493 0,14.1232877 L0,2 C0,1.49143836 0.491438356,1 1,1 L8.85633878,1 C8.40231016,1.70127776 8.13869863,2.53731975 8.13869863,3.43493151 C8.13869863,5.91264734 10.1472842,7.92123288 12.625,7.92123288 C13.1046355,7.92123288 13.5666913,7.84596494 14,7.70659632 Z M5.14212329,4.66267123 C4.63356164,4.66267123 4.29452055,5.00171233 4.29452055,5.51027397 C4.29452055,6.01883562 4.63356164,6.35787671 5.14212329,6.35787671 C5.65068493,6.35787671 5.98972603,6.01883562 5.98972603,5.51027397 C5.98972603,5.00171233 5.65068493,4.66267123 5.14212329,4.66267123 Z M2.48630137,11.5565068 L10.8493151,11.5565068 L8.34041096,6.35787671 L5.83150685,9.82363014 L4.15890411,8.09075342 L2.48630137,11.5565068 Z M12.625,6.75 C10.761039,6.75 9.25,5.23896103 9.25,3.375 C9.25,1.51103897 10.761039,-1.13686838e-13 12.625,-1.13686838e-13 C14.488961,-1.13686838e-13 16,1.51103897 16,3.375 C16,5.23896103 14.488961,6.75 12.625,6.75 Z M12.7049721,1.87189244 C11.9784953,1.87189244 11.1869609,2.01476408 11.1869609,2.31836631 C11.1869609,2.62196854 11.9784953,2.76484018 12.7049721,2.76484018 C13.4314489,2.76484018 14.2229833,2.62196854 14.2229833,2.31836631 C14.2229833,2.01476408 13.4314489,1.87189244 12.7049721,1.87189244 Z M12.7049721,3.10211094 C12.1194535,3.10211094 11.5014061,3.00725354 11.1869609,2.76484018 L11.1869609,3.30939192 C11.1869609,3.6677421 11.9784953,3.83637747 12.7049721,3.83637747 C13.4314489,3.83637747 14.2229833,3.6677421 14.2229833,3.30939192 L14.2229833,2.76484018 C13.9085381,3.00725354 13.2904907,3.10211094 12.7049721,3.10211094 Z M12.7049721,4.17364823 C12.1194535,4.17364823 11.5014061,4.07879083 11.1869609,3.83637747 L11.1869609,4.38092921 C11.1869609,4.73927939 11.9784953,4.90791476 12.7049721,4.90791476 C13.4314489,4.90791476 14.2229833,4.73927939 14.2229833,4.38092921 L14.2229833,3.83637747 C13.9085381,4.07879083 13.2904907,4.17364823 12.7049721,4.17364823 Z" id="Image-dinamic" fill="currentColor" fill-rule="nonzero"></path>
    </g>
</svg>

<svg xmlns="http://www.w3.org/2000/svg" viewBox="0 0 16 16"><path fill="currentColor" fill-rule="nonzero" d="M14 7.707v6.416c0 .509-.491.848-1 .848H.848c-.509 0-.848-.34-.848-.848V2c0-.509.491-1 1-1h7.856A4.486 4.486 0 0 0 14 7.707ZM5.142 4.663c-.508 0-.847.339-.847.847 0 .509.339.848.847.848.509 0 .848-.34.848-.848s-.34-.847-.848-.847Zm-2.656 6.894h8.363l-2.509-5.2-2.508 3.467L4.159 8.09l-1.673 3.466ZM12.625 6.75a3.375 3.375 0 1 1 0-6.75 3.375 3.375 0 0 1 0 6.75Zm.08-4.878c-.727 0-1.518.143-1.518.446 0 .304.791.447 1.518.447.726 0 1.518-.143 1.518-.447 0-.303-.792-.446-1.518-.446Zm0 1.23c-.586 0-1.204-.095-1.518-.337v.544c0 .359.791.527 1.518.527.726 0 1.518-.168 1.518-.527v-.544c-.314.242-.933.337-1.518.337Zm0 1.072c-.586 0-1.204-.095-1.518-.338v.545c0 .358.791.527 1.518.527.726 0 1.518-.169 1.518-.527v-.545c-.314.243-.933.338-1.518.338Z"/></svg>
